icons/ApacheSpark-Light.svg

<?xml version="1.0" encoding="UTF-8"?>
<svg id="spark" width="256" height="256" fill="none" title="Spark" version="1.1" viewBox="0 0 256 256" xmlns="http://www.w3.org/2000/svg">
 <style>#spark {
    rect {fill: #15191C}
    path.ss {fill: #F4F2ED}

    @media (prefers-color-scheme: light) {
        rect {fill: #F4F2ED}
        path.ss {fill: #15191C}
    }
}</style>
 <rect width="256" height="256" rx="40" fill="#f4f2ed"/>
 <path d="m205.23 128.88c-0.158-0.335-0.232-0.507-0.319-0.668-2.318-4.347-4.63-8.699-6.967-13.034-0.237-0.434-0.207-0.693 0.114-1.064 3.687-4.248 7.355-8.513 11.028-12.775 0.128-0.147 0.245-0.308 0.294-0.573-1.074 0.276-2.149 0.549-3.22 0.829-4.456 1.165-8.912 2.326-13.362 3.504-0.414 0.109-0.602-8e-3 -0.81-0.349-2.527-4.166-5.071-8.3247-7.613-12.483-0.131-0.2182-0.273-0.4281-0.551-0.6081-0.204 1.1098-0.414 2.2196-0.613 3.3295l-2.119 11.764c-0.076 0.425-0.183 0.845-0.218 1.273-0.038 0.404-0.246 0.554-0.619 0.668-5.249 1.626-10.493 3.267-15.739 4.909-0.229 0.071-0.456 0.163-0.701 0.384l12.936 5.072c-0.158 0.123-0.262 0.218-0.376 0.295-2.684 1.712-5.372 3.416-8.045 5.137-0.321 0.204-0.575 0.234-0.935 0.073-3.204-1.42-6.422-2.816-9.628-4.232-1.443-0.635-2.738-1.477-3.747-2.694-2.282-2.754-1.832-5.884 1.208-7.798 0.995-0.628 2.127-1.094 3.25-1.457 5.143-1.652 10.305-3.244 15.462-4.845 0.433-0.134 0.635-0.325 0.714-0.785 0.687-3.9271 1.402-7.8455 2.116-11.767 0.384-2.0942 0.589-4.2457 1.622-6.1627 0.399-0.7417 0.873-1.4643 1.44-2.0833 2.045-2.2414 4.906-2.3287 7.071-0.1908 0.731 0.7198 1.358 1.5706 1.903 2.4405 2.383 3.8366 4.731 7.6978 7.063 11.562 0.278 0.4609 0.526 0.5509 1.036 0.4172 5.754-1.5215 11.513-3.0186 17.269-4.5183 1.189-0.3109 2.389-0.4227 3.608-0.1991 2.655 0.4909 3.817 2.4814 2.917 5.0119-0.409 1.1508-1.115 2.127-1.909 3.0436-4.016 4.662-8.027 9.325-12.058 13.975-0.33 0.381-0.338 0.654-0.109 1.079 2.405 4.472 4.789 8.953 7.183 13.43 0.572 1.072 1.009 2.182 1.022 3.414 0.028 2.801-2.045 5.091-4.867 5.497-1.582 0.229-3.049-0.103-4.527-0.553-3.607-1.102-7.22-2.182-10.836-3.253-0.335-0.101-0.464-0.229-0.521-0.587-0.417-2.508-0.87-5.011-1.309-7.517-0.011-0.069 8e-3 -0.142 0.019-0.298l12.443 3.387z" clip-rule="evenodd" fill="#E25A1C" fill-rule="evenodd"/>
 <path class="ss" d="m198.2 165.42c-3.253-5e-3 -6.506-0.022-9.762-8e-3 -0.428 0-0.671-0.123-0.911-0.483-3.85-5.786-7.717-11.559-11.583-17.334-0.123-0.186-0.254-0.363-0.475-0.671l-2.459 18.452h-8.519c0.101-0.818 0.188-1.608 0.292-2.399 0.832-6.261 1.666-12.527 2.503-18.788 0.796-5.985 1.59-11.971 2.4-17.956 0.024-0.178 0.144-0.404 0.291-0.499 2.932-1.882 5.874-3.752 8.814-5.623 0.043-0.027 0.103-0.03 0.256-0.074l-2.656 19.972 0.104 0.071 13.942-15.243 0.371 2.105c0.33 1.903 0.646 3.806 1 5.704 0.071 0.382-0.03 0.622-0.289 0.886-2.983 3.082-5.958 6.171-8.933 9.261l-0.401 0.433c0.096 0.15 0.175 0.295 0.273 0.428l15.399 21.308c0.092 0.131 0.226 0.232 0.343 0.346v0.112zm-100.97-18.469c-0.1309-0.654-0.2236-1.617-0.5181-2.514-1.4261-4.341-5.9445-6.722-10.618-5.647-5.1264 1.175-8.7913 5.153-9.3203 10.313-0.3926 3.817 1.6907 7.496 5.5655 8.875 3.1222 1.113 6.1272 0.647 8.9167-1.003 3.7031-2.19 5.71-5.44 5.9745-10.024zm-22.518 16.135c-0.2536 1.868-0.4963 3.627-0.7308 5.391-0.3108 2.339-0.6217 4.682-0.9216 7.024-0.0355 0.273-0.12 0.396-0.4172 0.393-2.3397-8e-3 -4.6793-8e-3 -7.0189-0.011-0.0545 0-0.1063-0.027-0.2318-0.063 0.1391-1.107 0.2782-2.214 0.4254-3.321 0.5181-3.886 1.0307-7.769 1.5543-11.652 0.5999-4.439 1.0744-8.9 1.8406-13.312 1.3607-7.81 8.0769-14.542 15.963-16.219 4.5702-0.971 8.944-0.521 12.933 2.017 3.9809 2.528 6.2639 6.198 6.7839 10.818 0.737 6.528-1.701 11.949-6.4022 16.432-3.0868 2.945-6.7816 4.815-11.044 5.448-4.3902 0.652-8.5186-0.071-12.222-2.623-0.1364-0.093-0.2809-0.175-0.5127-0.322zm-3.8148-37.115-7.6924 5.647c-0.409-0.635-0.7771-1.27-1.2053-1.862-1.1016-1.519-2.4705-2.653-4.4638-2.792-1.6552-0.115-3.0704 0.425-4.1993 1.627-1.0089 1.078-1.1398 2.61-0.1963 3.826 1.0362 1.336 2.1705 2.607 3.3294 3.848 1.9224 2.053 3.9321 4.03 5.8409 6.097 1.737 1.879 3.1195 3.987 3.5476 6.555 0.5099 3.054-0.1091 5.964-1.5734 8.647-2.7104 4.968-6.9807 7.853-12.614 8.753-2.4896 0.398-4.971 0.319-7.4006-0.387-3.2231-0.935-5.4619-3.016-6.9071-5.961-0.5099-1.036-0.8998-2.138-1.3634-3.253l8.3441-4.404c0.0954 0.229 0.1636 0.42 0.2536 0.6 0.4745 0.935 0.8644 1.928 1.4507 2.79 1.7424 2.555 4.5538 3.332 7.4115 2.072 0.7308-0.327 1.437-0.785 2.0397-1.309 1.8406-1.611 2.1842-3.853 0.8235-5.879-0.7826-1.164-1.7616-2.209-2.7132-3.253-2.2769-2.492-4.6465-4.908-6.8716-7.444-1.5298-1.751-2.5714-3.791-2.9014-6.136-0.3599-2.557 0.1582-4.971 1.508-7.125 3.354-5.353 8.235-8.139 14.684-7.908 3.6758 0.131 6.6044 1.827 8.8786 4.644 0.6708 0.834 1.3034 1.702 1.9906 2.607zm62.308 28.743c-0.425 3.226-0.829 6.291-1.249 9.354-0.022 0.155-0.144 0.365-0.278 0.428-6.351 2.898-14.711 2.495-19.925-3.346-2.803-3.136-3.978-6.861-3.801-11.006 0.406-9.59 8.467-17.961 18.109-19.131 5.633-0.685 10.574 0.818 14.389 5.132 2.599 2.939 3.801 6.451 3.624 10.326-0.117 2.558-0.523 5.108-0.845 7.654-0.458 3.608-0.96 7.213-1.443 10.818-0.016 0.128-0.043 0.256-0.07 0.417h-7.597c0.1-0.829 0.193-1.639 0.3-2.449 0.55-4.164 1.156-8.322 1.636-12.494 0.3-2.596 0.111-5.176-1.091-7.581-1.282-2.56-3.433-3.913-6.258-4.207-5.849-0.611-11.415 3.398-12.661 9.075-0.823 3.746 0.475 7.338 3.501 9.326 2.948 1.936 6.109 1.941 9.321 0.684 1.63-0.635 3.018-1.642 4.338-3zm31.986-22.973-1.036 7.766c-1.609 0-3.183-8e-3 -4.756 5e-3 -1.276 9e-3 -2.44 0.821-2.825 1.996-0.15 0.459-0.204 0.952-0.27 1.435-0.799 5.963-1.59 11.927-2.383 17.893-0.202 1.503-0.396 3.008-0.597 4.535h-7.905c0.147-1.145 0.286-2.258 0.436-3.365 0.513-3.867 1.025-7.731 1.546-11.594 0.45-3.344 0.851-6.695 1.382-10.027 0.709-4.467 5.214-8.434 9.784-8.628 2.182-0.095 4.369-0.016 6.624-0.016z" clip-rule="evenodd" fill="#15191c" fill-rule="evenodd"/>
 <path class="ss" d="m207.52 165.38v-3.291h-0.017l-1.309 3.291h-0.419l-1.309-3.291h-0.019v3.288h-0.66v-3.943h1.017l1.194 2.997 1.173-2.997h1.009v3.946h-0.66zm-5.8-3.417v3.417h-0.66v-3.417h-1.254v-0.526h3.163v0.526h-1.249zm-120.23-41.521h1.9633l-0.4635-2.926-1.4998 2.926zm2.2687 1.892h-3.2613l-1.0362 2.002h-2.3096l5.0937-9.389h2.2279l1.7342 9.389h-2.1405l-0.3082-2.002zm11.668-5.494h-1.1616l-0.3899 2.165h1.1589c0.7008 0 1.2625-0.453 1.2625-1.309 0-0.567-0.3545-0.856-0.8699-0.856zm-2.814-1.893h3.054c1.5952 0 2.7132 0.941 2.7132 2.555 0 2.029-1.4561 3.395-3.5258 3.395h-1.317l-0.6163 3.436h-1.9851l1.677-9.386zm12.519 5.495h1.96l-0.463-2.926-1.497 2.926zm2.266 1.892h-3.259l-1.036 2.002h-2.31l5.094-9.389h2.225l1.737 9.389h-2.143l-0.308-2.002zm12.895 1.669c-0.671 0.303-1.413 0.485-2.154 0.485-2.52 0-4.104-1.865-4.104-4.199 0-2.98 2.549-5.494 5.573-5.494 0.756 0 1.44 0.179 1.999 0.482l-0.278 2.253c-0.42-0.456-1.091-0.775-1.933-0.775-1.735 0-3.272 1.549-3.272 3.34 0 1.369 0.867 2.433 2.236 2.433 0.842 0 1.652-0.319 2.197-0.761l-0.264 2.236zm12.145-3.449h-4.142l-0.673 3.782h-1.986l1.677-9.389h1.988l-0.671 3.714h4.143l0.67-3.714h1.988l-1.677 9.389h-1.988l0.671-3.782zm7.289 3.782 1.68-9.389h5.276l-0.335 1.893h-3.292l-0.332 1.821h3.021l-0.335 1.893h-3.024l-0.336 1.889h3.289l-0.336 1.893h-5.276z" fill="#15191c"/>
</svg>

<?xml version="1.0" encoding="UTF-8" standalone="no"?>
<svg
   width="256"
   height="256"
   title="Spark"
   viewBox="0 0 256 256"
   fill="none"
   id="spark"
   version="1.1"
   sodipodi:docname="ApacheSpark-Light.svg"
   inkscape:version="1.4.2 (ebf0e940, 2025-05-08)"
   xmlns:inkscape="http://www.inkscape.org/namespaces/inkscape"
   xmlns:sodipodi="http://sodipodi.sourceforge.net/DTD/sodipodi-0.dtd"
   xmlns="http://www.w3.org/2000/svg"
   xmlns:svg="http://www.w3.org/2000/svg">
  <defs
     id="defs3" />
  <sodipodi:namedview
     id="namedview3"
     pagecolor="#ffffff"
     bordercolor="#000000"
     borderopacity="0.25"
     inkscape:showpageshadow="2"
     inkscape:pageopacity="0.0"
     inkscape:pagecheckerboard="0"
     inkscape:deskcolor="#d1d1d1"
     inkscape:zoom="1.9206705"
     inkscape:cx="51.284173"
     inkscape:cy="98.403134"
     inkscape:window-width="1512"
     inkscape:window-height="921"
     inkscape:window-x="0"
     inkscape:window-y="61"
     inkscape:window-maximized="0"
     inkscape:current-layer="spark" />
  <style
     id="style1">
#spark {
    rect {fill: #15191C}
    path.ss {fill: #F4F2ED}

    @media (prefers-color-scheme: light) {
        rect {fill: #F4F2ED}
        path.ss {fill: #15191C}
    }
}
</style>
  <rect
     width="256"
     height="256"
     rx="40"
     fill="#15191C"
     id="rect1"
     style="fill:#f4f2ed;fill-opacity:1" />
  <path
     fill-rule="evenodd"
     clip-rule="evenodd"
     d="M205.23 128.88C205.072 128.545 204.998 128.373 204.911 128.212C202.593 123.865 200.281 119.513 197.944 115.178C197.707 114.744 197.737 114.485 198.058 114.114C201.745 109.866 205.413 105.601 209.086 101.339C209.214 101.192 209.331 101.031 209.38 100.766C208.306 101.042 207.231 101.315 206.16 101.595C201.704 102.76 197.248 103.921 192.798 105.099C192.384 105.208 192.196 105.091 191.988 104.75C189.461 100.584 186.917 96.4253 184.375 92.2669C184.244 92.0487 184.102 91.8388 183.824 91.6588C183.62 92.7686 183.41 93.8784 183.211 94.9883L181.092 106.752C181.016 107.177 180.909 107.597 180.874 108.025C180.836 108.429 180.628 108.579 180.255 108.693C175.006 110.319 169.762 111.96 164.516 113.602C164.287 113.673 164.06 113.765 163.815 113.986L176.751 119.058C176.593 119.181 176.489 119.276 176.375 119.353C173.691 121.065 171.003 122.769 168.33 124.49C168.009 124.694 167.755 124.724 167.395 124.563C164.191 123.143 160.973 121.747 157.767 120.331C156.324 119.696 155.029 118.854 154.02 117.637C151.738 114.883 152.188 111.753 155.228 109.839C156.223 109.211 157.355 108.745 158.478 108.382C163.621 106.73 168.783 105.138 173.94 103.537C174.373 103.403 174.575 103.212 174.654 102.752C175.341 98.8249 176.056 94.9065 176.77 90.9853C177.154 88.8911 177.359 86.7396 178.392 84.8226C178.791 84.0809 179.265 83.3583 179.832 82.7393C181.877 80.4979 184.738 80.4106 186.903 82.5485C187.634 83.2683 188.261 84.1191 188.806 84.989C191.189 88.8256 193.537 92.6868 195.869 96.5507C196.147 97.0116 196.395 97.1016 196.905 96.9679C202.659 95.4464 208.418 93.9493 214.174 92.4496C215.363 92.1387 216.563 92.0269 217.782 92.2505C220.437 92.7414 221.599 94.7319 220.699 97.2624C220.29 98.4132 219.584 99.3894 218.79 100.306C214.774 104.968 210.763 109.631 206.732 114.281C206.402 114.662 206.394 114.935 206.623 115.36C209.028 119.832 211.412 124.313 213.806 128.79C214.378 129.862 214.815 130.972 214.828 132.204C214.856 135.005 212.783 137.295 209.961 137.701C208.379 137.93 206.912 137.598 205.434 137.148C201.827 136.046 198.214 134.966 194.598 133.895C194.263 133.794 194.134 133.666 194.077 133.308C193.66 130.8 193.207 128.297 192.768 125.791C192.757 125.722 192.776 125.649 192.787 125.493L205.23 128.88Z"
     fill="#E25A1C"
     id="path1" />
  <path
     fill-rule="evenodd"
     clip-rule="evenodd"
     d="M198.2 165.425C194.947 165.42 191.694 165.403 188.438 165.417C188.01 165.417 187.767 165.294 187.527 164.934C183.677 159.148 179.81 153.375 175.944 147.6C175.821 147.414 175.69 147.237 175.469 146.929L173.01 165.381H164.491C164.592 164.563 164.679 163.773 164.783 162.982C165.615 156.721 166.449 150.455 167.286 144.194C168.082 138.209 168.876 132.223 169.686 126.238C169.71 126.06 169.83 125.834 169.977 125.739C172.909 123.857 175.851 121.987 178.791 120.116C178.834 120.089 178.894 120.086 179.047 120.042L176.391 140.014L176.495 140.085L190.437 124.842L190.808 126.947C191.138 128.85 191.454 130.753 191.808 132.651C191.879 133.033 191.778 133.273 191.519 133.537C188.536 136.619 185.561 139.708 182.586 142.798L182.185 143.231C182.281 143.381 182.36 143.526 182.458 143.659L197.857 164.967C197.949 165.098 198.083 165.199 198.2 165.313V165.425ZM97.231 146.956C97.1001 146.302 97.0074 145.339 96.7129 144.442C95.2868 140.101 90.7684 137.72 86.0946 138.795C80.9682 139.97 77.3033 143.948 76.7743 149.108C76.3817 152.925 78.465 156.604 82.3398 157.983C85.462 159.096 88.467 158.63 91.2565 156.98C94.9596 154.79 96.9665 151.54 97.231 146.956ZM74.7128 163.091C74.4592 164.959 74.2165 166.718 73.982 168.482C73.6712 170.821 73.3603 173.164 73.0604 175.506C73.0249 175.779 72.9404 175.902 72.6432 175.899C70.3035 175.891 67.9639 175.891 65.6243 175.888C65.5698 175.888 65.518 175.861 65.3925 175.825C65.5316 174.718 65.6707 173.611 65.8179 172.504C66.336 168.618 66.8486 164.735 67.3722 160.852C67.9721 156.413 68.4466 151.952 69.2128 147.54C70.5735 139.73 77.2897 132.998 85.1757 131.321C89.7459 130.35 94.1197 130.8 98.1091 133.338C102.09 135.866 104.373 139.536 104.893 144.156C105.63 150.684 103.192 156.105 98.4908 160.588C95.404 163.533 91.7092 165.403 87.4471 166.036C83.0569 166.688 78.9285 165.965 75.2255 163.413C75.0891 163.32 74.9446 163.238 74.7128 163.091ZM70.898 125.976L63.2056 131.623C62.7966 130.988 62.4285 130.353 62.0003 129.761C60.8987 128.242 59.5298 127.108 57.5365 126.969C55.8813 126.854 54.4661 127.394 53.3372 128.596C52.3283 129.674 52.1974 131.206 53.1409 132.422C54.1771 133.758 55.3114 135.029 56.4703 136.27C58.3927 138.323 60.4024 140.3 62.3112 142.367C64.0482 144.246 65.4307 146.354 65.8588 148.922C66.3687 151.976 65.7497 154.886 64.2854 157.569C61.575 162.537 57.3047 165.422 51.6711 166.322C49.1815 166.72 46.7001 166.641 44.2705 165.935C41.0474 165 38.8086 162.919 37.3634 159.974C36.8535 158.938 36.4636 157.836 36 156.721L44.3441 152.317C44.4395 152.546 44.5077 152.737 44.5977 152.917C45.0722 153.852 45.4621 154.845 46.0484 155.707C47.7908 158.262 50.6022 159.039 53.4599 157.779C54.1907 157.452 54.8969 156.994 55.4996 156.47C57.3402 154.859 57.6838 152.617 56.3231 150.591C55.5405 149.427 54.5615 148.382 53.6099 147.338C51.333 144.846 48.9634 142.43 46.7383 139.894C45.2085 138.143 44.1669 136.103 43.8369 133.758C43.477 131.201 43.9951 128.787 45.3449 126.633C48.6989 121.28 53.5799 118.494 60.0288 118.725C63.7046 118.856 66.6332 120.552 68.9074 123.369C69.5782 124.203 70.2108 125.071 70.898 125.976ZM133.206 154.719C132.781 157.945 132.377 161.01 131.957 164.073C131.935 164.228 131.813 164.438 131.679 164.501C125.328 167.399 116.968 166.996 111.754 161.155C108.951 158.019 107.776 154.294 107.953 150.149C108.359 140.559 116.42 132.188 126.062 131.018C131.695 130.333 136.636 131.836 140.451 136.15C143.05 139.089 144.252 142.601 144.075 146.476C143.958 149.034 143.552 151.584 143.23 154.13C142.772 157.738 142.27 161.343 141.787 164.948C141.771 165.076 141.744 165.204 141.717 165.365H134.12C134.22 164.536 134.313 163.726 134.42 162.916C134.97 158.752 135.576 154.594 136.056 150.422C136.356 147.826 136.167 145.246 134.965 142.841C133.683 140.281 131.532 138.928 128.707 138.634C122.858 138.023 117.292 142.032 116.046 147.709C115.223 151.455 116.521 155.047 119.547 157.035C122.495 158.971 125.656 158.976 128.868 157.719C130.498 157.084 131.886 156.077 133.206 154.719ZM165.192 131.746L164.156 139.512C162.547 139.512 160.973 139.504 159.4 139.517C158.124 139.526 156.96 140.338 156.575 141.513C156.425 141.972 156.371 142.465 156.305 142.948C155.506 148.911 154.715 154.875 153.922 160.841C153.72 162.344 153.526 163.849 153.325 165.376H145.42C145.567 164.231 145.706 163.118 145.856 162.011C146.369 158.144 146.881 154.28 147.402 150.417C147.852 147.073 148.253 143.722 148.784 140.39C149.493 135.923 153.998 131.956 158.568 131.762C160.75 131.667 162.937 131.746 165.192 131.746Z"
     class="ss"
     fill="#F4F2ED"
     id="path2"
     style="fill:#15191c;fill-opacity:1" />
  <path
     d="M207.518 165.376V162.085H207.501L206.192 165.376H205.773L204.464 162.085H204.445V165.373H203.785V161.43H204.802L205.996 164.427L207.169 161.43H208.178V165.376H207.518ZM201.718 161.959V165.376H201.058V161.959H199.804V161.433H202.967V161.959H201.718ZM81.489 120.438H83.4523L82.9888 117.512L81.489 120.438ZM83.7577 122.33H80.4964L79.4602 124.332H77.1506L82.2443 114.943H84.4722L86.2064 124.332H84.0659L83.7577 122.33ZM95.4258 116.836H94.2642L93.8743 119.001H95.0332C95.734 119.001 96.2957 118.548 96.2957 117.692C96.2957 117.125 95.9412 116.836 95.4258 116.836ZM92.6118 114.943H95.6658C97.261 114.943 98.379 115.884 98.379 117.498C98.379 119.527 96.9229 120.893 94.8532 120.893H93.5362L92.9199 124.329H90.9348L92.6118 114.943ZM105.131 120.438H107.091L106.628 117.512L105.131 120.438ZM107.397 122.33H104.138L103.102 124.332H100.792L105.886 114.943H108.111L109.848 124.332H107.705L107.397 122.33ZM120.292 123.999C119.621 124.302 118.879 124.484 118.138 124.484C115.618 124.484 114.034 122.619 114.034 120.285C114.034 117.305 116.583 114.791 119.607 114.791C120.363 114.791 121.047 114.97 121.606 115.273L121.328 117.526C120.908 117.07 120.237 116.751 119.395 116.751C117.66 116.751 116.123 118.3 116.123 120.091C116.123 121.46 116.99 122.524 118.359 122.524C119.201 122.524 120.011 122.205 120.556 121.763L120.292 123.999ZM132.437 120.55H128.295L127.622 124.332H125.636L127.313 114.943H129.301L128.63 118.657H132.773L133.443 114.943H135.431L133.754 124.332H131.766L132.437 120.55ZM139.726 124.332L141.406 114.943H146.682L146.347 116.836H143.055L142.723 118.657H145.744L145.409 120.55H142.385L142.049 122.439H145.338L145.002 124.332H139.726Z"
     class="ss"
     fill="#F4F2ED"
     id="path3"
     style="fill:#15191c;fill-opacity:1" />
</svg>
